; generated by PrusaSlicer 2.2.0+win64 on 2022-05-27 at 18:58:23 UTC

; 

; external perimeters extrusion width = 0.45mm
; perimeters extrusion width = 0.45mm
; infill extrusion width = 0.45mm
; solid infill extrusion width = 0.45mm
; top infill extrusion width = 0.40mm
; first layer extrusion width = 0.42mm

M201 X500 Y500 Z100 E5000 ; sets maximum accelerations, mm/sec^2
M203 X500 Y500 Z10 E60 ; sets maximum feedrates, mm/sec
M204 P500 R1000 T500 ; sets acceleration (P, T) and retract acceleration (R), mm/sec^2
M205 X8.00 Y8.00 Z0.40 E5.00 ; sets the jerk limits, mm/sec
M205 S0 T0 ; sets the minimum extruding and travel feed rate, mm/sec
M107
G90 ; use absolute coordinates
M83 ; extruder relative mode
M104 S240 ; set extruder temp
M140 S70 ; set bed temp
M190 S70 ; wait for bed temp
M109 S240 ; wait for extruder temp
G28 ; home all
G1 Z2 F240
G1 X2 Y10 F3000
G1 Z0.28 F240
G92 E0.0
G1 Y190 E15.0 F1500.0 ; intro line
G1 X2.3 F5000
G1 Y10 E30 F1200.0 ; intro line
G92 E0.0
G21 ; set units to millimeters
G90 ; use absolute coordinates
M83 ; use relative distances for extrusion
; Filament gcode
;BEFORE_LAYER_CHANGE
;0.2


G1 E-5.00000 F3600.00000
G1 Z0.200 F9000.000
;AFTER_LAYER_CHANGE
;0.2
G1 X75.742 Y83.736
G1 E5.00000 F2400.00000
G1 F1200.000
G1 X76.486 Y83.611 E0.02367
G1 X143.499 Y83.611 E2.10114
G1 X144.391 Y83.786 E0.02849
G1 X145.154 Y84.285 E0.02860
G1 X145.673 Y85.036 E0.02860
G1 X145.871 Y85.922 E0.02849
G1 X145.874 Y134.058 E1.50925
G1 X145.803 Y134.589 E0.01680
G1 X145.614 Y135.094 E0.01692
G1 X145.315 Y135.544 E0.01692
G1 X144.926 Y135.912 E0.01680
G1 X144.258 Y136.264 E0.02367
G1 X143.514 Y136.389 E0.02367
G1 X76.490 Y136.389 E2.10149
G1 X75.950 Y136.323 E0.01704
G1 X75.436 Y136.135 E0.01716
G1 X74.979 Y135.835 E0.01716
G1 X74.605 Y135.440 E0.01704
G1 X74.254 Y134.776 E0.02355
G1 X74.128 Y134.036 E0.02355
G1 X74.126 Y85.965 E1.50722
G1 X74.193 Y85.426 E0.01704
G1 X74.381 Y84.916 E0.01704
G1 X74.680 Y84.462 E0.01704
G1 X75.074 Y84.088 E0.01704
G1 X75.689 Y83.764 E0.02178
G1 E-3.50000 F3600.00000
G1 F7200.000
G1 X76.486 Y83.611 E-0.38569
G1 X78.674 Y83.611 E-1.03931
G1 E-0.07500 F3600.00000
G1 X77.467 Y86.952 F9000.000
G1 E5.00000 F2400.00000
G1 F1200.000
G1 X142.531 Y86.952 E2.04004
G1 X142.532 Y133.048 E1.44529
G1 X77.469 Y133.048 E2.04002
G1 X77.467 Y87.012 E1.44341
G1 X77.090 Y86.575 F9000.000
G1 F1200.000
G1 X142.908 Y86.575 E2.06369
G1 X142.910 Y133.425 E1.46894
G1 X77.092 Y133.425 E2.06367
G1 X77.090 Y86.635 E1.46706
G1 X76.713 Y86.198 F9000.000
G1 F1200.000
G1 X143.285 Y86.198 E2.08733
G1 X143.287 Y133.802 E1.49259
G1 X76.715 Y133.802 E2.08733
G1 X76.713 Y86.258 E1.49070
G1 X77.104 Y86.280 F9000.000
G1 E-3.50000 F3600.00000
G1 F7200.000
G1 X79.713 Y86.255 E-1.42500
G1 E-0.07500 F3600.00000
G1 X142.418 Y87.830 F9000.000
G1 E5.00000 F2400.00000
G1 F1200.000
G1 X141.822 Y87.235 E0.02650
G1 X141.287 Y87.235 E0.01684
G1 X142.248 Y88.196 E0.04276
G1 X142.248 Y88.731 E0.01684
G1 X140.752 Y87.235 E0.06658
G1 X140.217 Y87.235 E0.01684
G1 X142.248 Y89.266 E0.09039
G1 X142.248 Y89.801 E0.01684
G1 X139.682 Y87.235 E0.11421
G1 X139.147 Y87.235 E0.01684
G1 X142.248 Y90.337 E0.13802
G1 X142.248 Y90.872 E0.01684
G1 X138.611 Y87.235 E0.16184
G1 X138.076 Y87.235 E0.01684
G1 X142.248 Y91.407 E0.18565
G1 X142.248 Y91.942 E0.01684
G1 X137.541 Y87.235 E0.20947
G1 X137.006 Y87.235 E0.01684
G1 X142.248 Y92.477 E0.23328
G1 X142.248 Y93.012 E0.01684
G1 X136.471 Y87.235 E0.25709
G1 X135.936 Y87.235 E0.01684
G1 X142.248 Y93.548 E0.28091
G1 X142.248 Y94.083 E0.01684
G1 X135.400 Y87.235 E0.30472
G1 X134.865 Y87.235 E0.01684
G1 X142.248 Y94.618 E0.32854
G1 X142.248 Y95.153 E0.01684
G1 X134.330 Y87.235 E0.35235
G1 X133.795 Y87.235 E0.01684
G1 X142.248 Y95.688 E0.37617
G1 X142.248 Y96.224 E0.01684
G1 X133.260 Y87.235 E0.39998
G1 X132.725 Y87.235 E0.01684
G1 X142.248 Y96.759 E0.42380
G1 X142.248 Y97.294 E0.01684
G1 X132.189 Y87.235 E0.44761
G1 X131.654 Y87.235 E0.01684
G1 X142.248 Y97.829 E0.47143
G1 X142.248 Y98.364 E0.01684
G1 X131.119 Y87.235 E0.49524
G1 X130.584 Y87.235 E0.01684
G1 X142.248 Y98.899 E0.51906
G1 X142.248 Y99.435 E0.01684
G1 X130.049 Y87.235 E0.54287
G1 X129.514 Y87.235 E0.01684
G1 X142.248 Y99.970 E0.56669
G1 X142.248 Y100.505 E0.01684
G1 X128.978 Y87.235 E0.59050
G1 X128.443 Y87.235 E0.01684
G1 X142.248 Y101.040 E0.61432
G1 X142.248 Y101.575 E0.01684
G1 X127.908 Y87.235 E0.63813
G1 X127.373 Y87.235 E0.01684
G1 X142.248 Y102.110 E0.66195
G1 X142.248 Y102.646 E0.01684
G1 X126.838 Y87.235 E0.68576
G1 X126.303 Y87.235 E0.01684
G1 X142.248 Y103.181 E0.70958
G1 X142.248 Y103.716 E0.01684
G1 X125.767 Y87.235 E0.73339
G1 X125.232 Y87.235 E0.01684
G1 X142.248 Y104.251 E0.75721
G1 X142.248 Y104.786 E0.01684
G1 X124.697 Y87.235 E0.78102
G1 X124.162 Y87.235 E0.01684
G1 X142.248 Y105.321 E0.80484
G1 X142.248 Y105.857 E0.01684
G1 X123.627 Y87.235 E0.82865
G1 X123.092 Y87.235 E0.01684
G1 X142.248 Y106.392 E0.85247
G1 X142.248 Y106.927 E0.01684
G1 X122.556 Y87.235 E0.87628
G1 X122.021 Y87.235 E0.01684
G1 X142.248 Y107.462 E0.90010
G1 X142.248 Y107.997 E0.01684
G1 X121.486 Y87.235 E0.92391
G1 X120.951 Y87.235 E0.01684
G1 X142.248 Y108.532 E0.94773
G1 X142.248 Y109.068 E0.01684
G1 X120.416 Y87.235 E0.97154
G1 X119.880 Y87.235 E0.01684
G1 X142.248 Y109.603 E0.99536
G1 X142.248 Y110.138 E0.01684
G1 X119.345 Y87.235 E1.01917
G1 X118.810 Y87.235 E0.01684
G1 X142.248 Y110.673 E1.04299
G1 X142.248 Y111.208 E0.01684
G1 X118.275 Y87.235 E1.06680
G1 X117.740 Y87.235 E0.01684
G1 X142.248 Y111.743 E1.09062
G1 X142.248 Y112.279 E0.01684
G1 X117.205 Y87.235 E1.11443
G1 X116.669 Y87.235 E0.01684
G1 X142.248 Y112.814 E1.13825
G1 X142.248 Y113.349 E0.01684
G1 X116.134 Y87.235 E1.16206
G1 X115.599 Y87.235 E0.01684
G1 X142.248 Y113.884 E1.18588
G1 X142.248 Y114.419 E0.01684
G1 X115.064 Y87.235 E1.20969
G1 X114.529 Y87.235 E0.01684
G1 X142.248 Y114.954 E1.23351
G1 X142.248 Y115.490 E0.01684
G1 X113.994 Y87.235 E1.25732
G1 X113.458 Y87.235 E0.01684
G1 X142.248 Y116.025 E1.28114
G1 X142.248 Y116.560 E0.01684
G1 X112.923 Y87.235 E1.30495
G1 X112.388 Y87.235 E0.01684
G1 X142.248 Y117.095 E1.32877
G1 X142.248 Y117.630 E0.01684
G1 X111.853 Y87.235 E1.35258
G1 X111.318 Y87.235 E0.01684
G1 X142.248 Y118.166 E1.37640
G1 X142.248 Y118.701 E0.01684
G1 X110.783 Y87.235 E1.40021
G1 X110.247 Y87.235 E0.01684
G1 X142.248 Y119.236 E1.42403
G1 X142.248 Y119.771 E0.01684
G1 X109.712 Y87.235 E1.44784
G1 X109.177 Y87.235 E0.01684
G1 X142.248 Y120.306 E1.47166
G1 X142.248 Y120.841 E0.01684
G1 X108.642 Y87.235 E1.49547
G1 X108.107 Y87.235 E0.01684
G1 X142.248 Y121.377 E1.51929
G1 X142.248 Y121.912 E0.01684
G1 X107.572 Y87.235 E1.54310
G1 X107.036 Y87.235 E0.01684
G1 X142.248 Y122.447 E1.56692
G1 X142.248 Y122.982 E0.01684
G1 X106.501 Y87.235 E1.59073
G1 X105.966 Y87.235 E0.01684
G1 X142.248 Y123.517 E1.61455
G1 X142.248 Y124.052 E0.01684
G1 X105.431 Y87.235 E1.63836
G1 X104.896 Y87.235 E0.01684
G1 X142.248 Y124.588 E1.66218
G1 X142.248 Y125.123 E0.01684
G1 X104.361 Y87.235 E1.68599
G1 X103.825 Y87.235 E0.01684
G1 X142.248 Y125.658 E1.70980
G1 X142.248 Y126.193 E0.01684
G1 X103.290 Y87.235 E1.73362
G1 X102.755 Y87.235 E0.01684
G1 X142.248 Y126.728 E1.75743
G1 X142.248 Y127.263 E0.01684
G1 X102.220 Y87.235 E1.78125
G1 X101.685 Y87.235 E0.01684
G1 X142.248 Y127.799 E1.80506
G1 X142.248 Y128.334 E0.01684
G1 X101.150 Y87.235 E1.82888
G1 X100.614 Y87.235 E0.01684
G1 X142.248 Y128.869 E1.85269
G1 X142.248 Y129.404 E0.01684
G1 X100.079 Y87.235 E1.87651
G1 X99.544 Y87.235 E0.01684
G1 X142.248 Y129.939 E1.90032
G1 X142.248 Y130.474 E0.01684
G1 X99.009 Y87.235 E1.92414
G1 X98.474 Y87.235 E0.01684
G1 X142.248 Y131.010 E1.94795
G1 X142.248 Y131.545 E0.01684
G1 X97.938 Y87.235 E1.97177
G1 X97.403 Y87.235 E0.01684
G1 X142.249 Y132.080 E1.99561
G1 X142.249 Y132.616 E0.01685
G1 X96.868 Y87.235 E2.01944
G1 X96.333 Y87.235 E0.01684
G1 X141.863 Y132.765 E2.02607
G1 X141.328 Y132.765 E0.01684
G1 X95.798 Y87.235 E2.02607
G1 X95.263 Y87.235 E0.01684
G1 X140.793 Y132.765 E2.02607
G1 X140.257 Y132.765 E0.01684
G1 X94.727 Y87.235 E2.02607
G1 X94.192 Y87.235 E0.01684
G1 X139.722 Y132.765 E2.02607
G1 X139.187 Y132.765 E0.01684
G1 X93.657 Y87.235 E2.02607
G1 X93.122 Y87.235 E0.01684
G1 X138.652 Y132.765 E2.02607
G1 X138.117 Y132.765 E0.01684
G1 X92.587 Y87.235 E2.02607
G1 X92.052 Y87.235 E0.01684
G1 X137.582 Y132.765 E2.02607
G1 X137.046 Y132.765 E0.01684
G1 X91.516 Y87.235 E2.02607
G1 X90.981 Y87.235 E0.01684
G1 X136.511 Y132.765 E2.02607
G1 X135.976 Y132.765 E0.01684
G1 X90.446 Y87.235 E2.02607
G1 X89.911 Y87.235 E0.01684
G1 X135.441 Y132.765 E2.02607
G1 X134.906 Y132.765 E0.01684
G1 X89.376 Y87.235 E2.02607
G1 X88.841 Y87.235 E0.01684
G1 X134.371 Y132.765 E2.02607
G1 X133.835 Y132.765 E0.01684
G1 X88.305 Y87.235 E2.02607
G1 X87.770 Y87.235 E0.01684
G1 X133.300 Y132.765 E2.02607
G1 X132.765 Y132.765 E0.01684
G1 X87.235 Y87.235 E2.02607
G1 X86.700 Y87.235 E0.01684
G1 X132.230 Y132.765 E2.02607
G1 X131.695 Y132.765 E0.01684
G1 X86.165 Y87.235 E2.02607
G1 X85.630 Y87.235 E0.01684
G1 X131.159 Y132.765 E2.02607
G1 X130.624 Y132.765 E0.01684
G1 X85.094 Y87.235 E2.02607
G1 X84.559 Y87.235 E0.01684
G1 X130.089 Y132.765 E2.02607
G1 X129.554 Y132.765 E0.01684
G1 X84.024 Y87.235 E2.02607
G1 X83.489 Y87.235 E0.01684
G1 X129.019 Y132.765 E2.02607
G1 X128.484 Y132.765 E0.01684
G1 X82.954 Y87.235 E2.02607
G1 X82.419 Y87.235 E0.01684
G1 X127.948 Y132.765 E2.02607
G1 X127.413 Y132.765 E0.01684
G1 X81.883 Y87.235 E2.02607
G1 X81.348 Y87.235 E0.01684
G1 X126.878 Y132.765 E2.02607
G1 X126.343 Y132.765 E0.01684
G1 X80.813 Y87.235 E2.02607
G1 X80.278 Y87.235 E0.01684
G1 X125.808 Y132.765 E2.02607
G1 X125.273 Y132.765 E0.01684
G1 X79.743 Y87.235 E2.02607
G1 X79.207 Y87.235 E0.01684
G1 X124.737 Y132.765 E2.02607
G1 X124.202 Y132.765 E0.01684
G1 X78.672 Y87.235 E2.02607
G1 X78.137 Y87.235 E0.01684
G1 X123.667 Y132.765 E2.02607
G1 X123.132 Y132.765 E0.01684
G1 X77.750 Y87.383 E2.01949
G1 X77.750 Y87.918 E0.01684
G1 X122.597 Y132.765 E1.99568
G1 X122.062 Y132.765 E0.01684
G1 X77.750 Y88.453 E1.97186
G1 X77.750 Y88.988 E0.01684
G1 X121.526 Y132.765 E1.94804
G1 X120.991 Y132.765 E0.01684
G1 X77.750 Y89.524 E1.92423
G1 X77.750 Y90.059 E0.01684
G1 X120.456 Y132.765 E1.90041
G1 X119.921 Y132.765 E0.01684
G1 X77.750 Y90.594 E1.87660
G1 X77.750 Y91.129 E0.01684
G1 X119.386 Y132.765 E1.85278
G1 X118.851 Y132.765 E0.01684
G1 X77.750 Y91.664 E1.82896
G1 X77.750 Y92.200 E0.01684
G1 X118.315 Y132.765 E1.80515
G1 X117.780 Y132.765 E0.01684
G1 X77.750 Y92.735 E1.78133
G1 X77.750 Y93.270 E0.01684
G1 X117.245 Y132.765 E1.75752
G1 X116.710 Y132.765 E0.01684
G1 X77.750 Y93.805 E1.73370
G1 X77.750 Y94.340 E0.01684
G1 X116.175 Y132.765 E1.70988
G1 X115.640 Y132.765 E0.01684
G1 X77.750 Y94.875 E1.68607
G1 X77.750 Y95.411 E0.01684
G1 X115.104 Y132.765 E1.66225
G1 X114.569 Y132.765 E0.01684
G1 X77.750 Y95.946 E1.63844
G1 X77.750 Y96.481 E0.01684
G1 X114.034 Y132.765 E1.61462
G1 X113.499 Y132.765 E0.01684
G1 X77.750 Y97.016 E1.59080
G1 X77.750 Y97.551 E0.01684
G1 X112.964 Y132.765 E1.56699
G1 X112.428 Y132.765 E0.01684
G1 X77.750 Y98.087 E1.54317
G1 X77.750 Y98.622 E0.01684
G1 X111.893 Y132.765 E1.51936
G1 X111.358 Y132.765 E0.01684
G1 X77.750 Y99.157 E1.49554
G1 X77.750 Y99.692 E0.01684
G1 X110.823 Y132.765 E1.47172
G1 X110.288 Y132.765 E0.01684
G1 X77.750 Y100.227 E1.44791
G1 X77.750 Y100.763 E0.01684
G1 X109.753 Y132.765 E1.42409
G1 X109.217 Y132.765 E0.01684
G1 X77.750 Y101.298 E1.40028
G1 X77.750 Y101.833 E0.01684
G1 X108.682 Y132.765 E1.37646
G1 X108.147 Y132.765 E0.01684
G1 X77.750 Y102.368 E1.35264
G1 X77.750 Y102.903 E0.01684
G1 X107.612 Y132.765 E1.32883
G1 X107.077 Y132.765 E0.01684
G1 X77.750 Y103.439 E1.30501
G1 X77.750 Y103.974 E0.01684
G1 X106.542 Y132.765 E1.28120
G1 X106.006 Y132.765 E0.01684
G1 X77.750 Y104.509 E1.25738
G1 X77.750 Y105.044 E0.01684
G1 X105.471 Y132.765 E1.23357
G1 X104.936 Y132.765 E0.01684
G1 X77.751 Y105.579 E1.20975
G1 X77.751 Y106.115 E0.01684
G1 X104.401 Y132.765 E1.18593
G1 X103.866 Y132.765 E0.01684
G1 X77.751 Y106.650 E1.16212
G1 X77.751 Y107.185 E0.01684
G1 X103.331 Y132.765 E1.13830
G1 X102.795 Y132.765 E0.01684
G1 X77.751 Y107.720 E1.11449
G1 X77.751 Y108.255 E0.01684
G1 X102.260 Y132.765 E1.09067
G1 X101.725 Y132.765 E0.01684
G1 X77.751 Y108.791 E1.06685
G1 X77.751 Y109.326 E0.01684
G1 X101.190 Y132.765 E1.04304
G1 X100.655 Y132.765 E0.01684
G1 X77.751 Y109.861 E1.01922
G1 X77.751 Y110.396 E0.01684
G1 X100.120 Y132.765 E0.99541
G1 X99.584 Y132.765 E0.01684
G1 X77.751 Y110.931 E0.97159
G1 X77.751 Y111.467 E0.01684
G1 X99.049 Y132.765 E0.94777
G1 X98.514 Y132.765 E0.01684
G1 X77.751 Y112.002 E0.92396
G1 X77.751 Y112.537 E0.01684
G1 X97.979 Y132.765 E0.90014
G1 X97.444 Y132.765 E0.01684
G1 X77.751 Y113.072 E0.87633
G1 X77.751 Y113.607 E0.01684
G1 X96.909 Y132.765 E0.85251
G1 X96.373 Y132.765 E0.01684
G1 X77.751 Y114.142 E0.82869
G1 X77.751 Y114.678 E0.01684
G1 X95.838 Y132.765 E0.80488
G1 X95.303 Y132.765 E0.01684
G1 X77.751 Y115.213 E0.78106
G1 X77.751 Y115.748 E0.01684
G1 X94.768 Y132.765 E0.75725
G1 X94.233 Y132.765 E0.01684
G1 X77.751 Y116.283 E0.73343
G1 X77.751 Y116.818 E0.01684
G1 X93.698 Y132.765 E0.70961
G1 X93.162 Y132.765 E0.01684
G1 X77.751 Y117.354 E0.68580
G1 X77.751 Y117.889 E0.01684
G1 X92.627 Y132.765 E0.66198
G1 X92.092 Y132.765 E0.01684
G1 X77.751 Y118.424 E0.63817
G1 X77.751 Y118.959 E0.01684
G1 X91.557 Y132.765 E0.61435
G1 X91.022 Y132.765 E0.01684
G1 X77.751 Y119.494 E0.59053
G1 X77.751 Y120.030 E0.01684
G1 X90.486 Y132.765 E0.56672
G1 X89.951 Y132.765 E0.01684
G1 X77.751 Y120.565 E0.54290
G1 X77.751 Y121.100 E0.01684
G1 X89.416 Y132.765 E0.51909
G1 X88.881 Y132.765 E0.01684
G1 X77.751 Y121.635 E0.49527
G1 X77.751 Y122.170 E0.01684
G1 X88.346 Y132.765 E0.47145
G1 X87.811 Y132.765 E0.01684
G1 X77.751 Y122.706 E0.44764
G1 X77.751 Y123.241 E0.01684
G1 X87.275 Y132.765 E0.42382
G1 X86.740 Y132.765 E0.01684
G1 X77.751 Y123.776 E0.40001
G1 X77.751 Y124.311 E0.01684
G1 X86.205 Y132.765 E0.37619
G1 X85.670 Y132.765 E0.01684
G1 X77.751 Y124.846 E0.35237
G1 X77.751 Y125.382 E0.01684
G1 X85.135 Y132.765 E0.32856
G1 X84.600 Y132.765 E0.01684
G1 X77.751 Y125.917 E0.30474
G1 X77.751 Y126.452 E0.01684
G1 X84.064 Y132.765 E0.28093
G1 X83.529 Y132.765 E0.01684
G1 X77.751 Y126.987 E0.25711
G1 X77.751 Y127.522 E0.01684
G1 X82.994 Y132.765 E0.23329
G1 X82.459 Y132.765 E0.01684
G1 X77.751 Y128.058 E0.20948
G1 X77.752 Y128.593 E0.01684
G1 X81.924 Y132.765 E0.18566
G1 X81.389 Y132.765 E0.01684
G1 X77.752 Y129.128 E0.16185
G1 X77.752 Y129.663 E0.01684
G1 X80.853 Y132.765 E0.13803
G1 X80.318 Y132.765 E0.01684
G1 X77.752 Y130.198 E0.11421
G1 X77.752 Y130.734 E0.01684
G1 X79.783 Y132.765 E0.09040
G1 X79.248 Y132.765 E0.01684
G1 X77.752 Y131.269 E0.06658
G1 X77.752 Y131.804 E0.01684
G1 X78.713 Y132.765 E0.04277
G1 X78.178 Y132.765 E0.01684
G1 X77.582 Y132.169 E0.02650
;BEFORE_LAYER_CHANGE
;0.32


G1 E-3.50000 F3600.00000
G1 F7200.000
G1 X78.178 Y132.765 E-0.40007
G1 X78.713 Y132.765 E-0.25421
G1 X77.752 Y131.804 E-0.64560
G1 X77.752 Y131.540 E-0.12513
G1 E-0.07500 F3600.00000
G1 Z0.320 F9000.000
;AFTER_LAYER_CHANGE
;0.32
G1 X74.254 Y134.776
G1 E5.00000 F2400.00000
G1 X74.128 Y134.036 E0.01477
G1 X74.126 Y85.965 E0.94550
G1 X74.193 Y85.426 E0.01069
G1 X74.381 Y84.916 E0.01069
G1 X74.680 Y84.462 E0.01069
G1 X75.074 Y84.088 E0.01069
G1 X75.742 Y83.736 E0.01485
G1 X76.486 Y83.611 E0.01485
G1 X143.499 Y83.611 E1.31808
G1 X144.391 Y83.786 E0.01787
G1 X145.154 Y84.285 E0.01794
G1 X145.673 Y85.036 E0.01794
G1 X145.871 Y85.922 E0.01787
G1 X145.874 Y134.058 E0.94678
G1 X145.803 Y134.589 E0.01054
G1 X145.614 Y135.094 E0.01062
G1 X145.315 Y135.544 E0.01062
G1 X144.926 Y135.912 E0.01054
G1 X144.258 Y136.264 E0.01485
G1 X143.514 Y136.389 E0.01485
G1 X76.490 Y136.389 E1.31830
G1 X75.950 Y136.323 E0.01069
G1 X75.436 Y136.135 E0.01076
G1 X74.979 Y135.835 E0.01076
G1 X74.605 Y135.440 E0.01069
G1 X74.282 Y134.829 E0.01359
G1 E-3.50000 F3600.00000
G1 F7200.000
G1 X74.128 Y134.036 E-0.38392
G1 X74.128 Y131.844 E-1.04108
G1 E-0.07500 F3600.00000
G1 X77.578 Y132.938 F9000.000
G1 E5.00000 F2400.00000
