; generated by PrusaSlicer 2.2.0+win64 on 2022-05-28 at 03:46:13 UTC

; 

; external perimeters extrusion width = 0.45mm
; perimeters extrusion width = 0.45mm
; infill extrusion width = 0.45mm
; solid infill extrusion width = 0.45mm
; top infill extrusion width = 0.40mm
; first layer extrusion width = 0.42mm

M201 X500 Y500 Z100 E5000 ; sets maximum accelerations, mm/sec^2
M203 X500 Y500 Z10 E60 ; sets maximum feedrates, mm/sec
M204 P500 R1000 T500 ; sets acceleration (P, T) and retract acceleration (R), mm/sec^2
M205 X8.00 Y8.00 Z0.40 E5.00 ; sets the jerk limits, mm/sec
M205 S0 T0 ; sets the minimum extruding and travel feed rate, mm/sec
M107
G90 ; use absolute coordinates
M83 ; extruder relative mode
M104 S240 ; set extruder temp
M140 S70 ; set bed temp
M190 S70 ; wait for bed temp
M109 S240 ; wait for extruder temp
G28 ; home all
G1 Z2 F240
G1 X2 Y10 F3000
G1 Z0.28 F240
G92 E0.0
G1 Y190 E15.0 F1500.0 ; intro line
G1 X2.3 F5000
G1 Y10 E30 F1200.0 ; intro line
G92 E0.0
G21 ; set units to millimeters
G90 ; use absolute coordinates
M83 ; use relative distances for extrusion
; Filament gcode
;BEFORE_LAYER_CHANGE
;0.2


G1 E-5.00000 F3600.00000
G1 Z0.200 F9000.000
;AFTER_LAYER_CHANGE
;0.2
G1 X75.902 Y83.935
G1 E5.00000 F2400.00000
G1 F1200.000
G1 X76.646 Y83.810 E0.02367
G1 X143.341 Y83.810 E2.09118
G1 X144.233 Y83.985 E0.02849
G1 X144.996 Y84.485 E0.02860
G1 X145.515 Y85.235 E0.02860
G1 X145.714 Y86.122 E0.02849
G1 X145.714 Y133.858 E1.49675
G1 X145.643 Y134.389 E0.01680
G1 X145.454 Y134.895 E0.01692
G1 X145.155 Y135.344 E0.01692
G1 X144.763 Y135.715 E0.01692
G1 X144.098 Y136.065 E0.02355
G1 X143.354 Y136.190 E0.02367
G1 X76.647 Y136.190 E2.09154
G1 X76.104 Y136.123 E0.01716
G1 X75.590 Y135.934 E0.01716
G1 X75.137 Y135.635 E0.01704
G1 X74.760 Y135.238 E0.01716
G1 X74.410 Y134.573 E0.02355
G1 X74.286 Y133.836 E0.02343
G1 X74.286 Y86.165 E1.49472
G1 X74.353 Y85.625 E0.01704
G1 X74.541 Y85.115 E0.01704
G1 X74.840 Y84.662 E0.01704
G1 X75.237 Y84.285 E0.01716
G1 X75.849 Y83.963 E0.02167
G1 E-3.50000 F3600.00000
G1 F7200.000
G1 X76.646 Y83.810 E-0.38570
G1 X78.834 Y83.810 E-1.03930
G1 E-0.07500 F3600.00000
G1 X110.013 Y118.562 F9000.000
G1 E5.00000 F2400.00000
G1 F1200.000
G1 X118.291 Y118.562 E0.25956
G1 X118.291 Y126.850 E0.25986
G1 X110.013 Y126.850 E0.25956
G1 X110.013 Y118.622 E0.25798
G1 X110.390 Y118.939 F9000.000
G1 F1200.000
G1 X117.914 Y118.939 E0.23591
G1 X117.914 Y126.473 E0.23621
G1 X110.390 Y126.473 E0.23591
G1 X110.390 Y118.999 E0.23433
G1 X110.767 Y119.316 F9000.000
G1 F1200.000
G1 X117.537 Y119.316 E0.21227
G1 X117.537 Y126.096 E0.21257
G1 X110.767 Y126.096 E0.21227
G1 X110.767 Y119.376 E0.21069
G1 X110.664 Y118.930 F9000.000
G1 E-3.50000 F3600.00000
G1 F7200.000
G1 X113.767 Y119.349 E-1.42500
G1 E-0.07500 F3600.00000
G1 X101.069 Y118.562 F9000.000
G1 E5.00000 F2400.00000
G1 F1200.000
G1 X109.348 Y118.562 E0.25956
G1 X109.348 Y126.850 E0.25986
G1 X101.069 Y126.850 E0.25956
G1 X101.069 Y118.622 E0.25798
G1 X101.446 Y118.939 F9000.000
G1 F1200.000
G1 X108.971 Y118.939 E0.23591
G1 X108.971 Y126.473 E0.23621
G1 X101.446 Y126.473 E0.23591
G1 X101.446 Y118.999 E0.23433
G1 X101.824 Y119.316 F9000.000
G1 F1200.000
G1 X108.594 Y119.316 E0.21227
G1 X108.594 Y126.096 E0.21257
G1 X101.824 Y126.096 E0.21227
G1 X101.824 Y119.376 E0.21069
G1 X101.720 Y118.930 F9000.000
G1 E-3.50000 F3600.00000
G1 F7200.000
G1 X104.823 Y119.349 E-1.42500
G1 E-0.07500 F3600.00000
G1 X101.069 Y93.163 F9000.000
G1 E5.00000 F2400.00000
G1 F1200.000
G1 X109.348 Y93.163 E0.25956
G1 X109.348 Y101.450 E0.25986
G1 X101.069 Y101.450 E0.25956
G1 X101.069 Y93.223 E0.25798
G1 X101.446 Y93.540 F9000.000
G1 F1200.000
G1 X108.971 Y93.540 E0.23591
G1 X108.971 Y101.073 E0.23621
G1 X101.446 Y101.073 E0.23591
G1 X101.446 Y93.600 E0.23433
G1 X101.824 Y93.917 F9000.000
G1 F1200.000
G1 X108.594 Y93.917 E0.21227
G1 X108.594 Y100.696 E0.21257
G1 X101.824 Y100.696 E0.21227
G1 X101.824 Y93.977 E0.21069
G1 X101.720 Y93.530 F9000.000
G1 E-3.50000 F3600.00000
G1 F7200.000
G1 X104.823 Y93.950 E-1.42500
G1 E-0.07500 F3600.00000
G1 X98.264 Y96.347 F9000.000
G1 E5.00000 F2400.00000
G1 F1200.000
G1 X98.264 Y125.341 E0.90907
G1 X83.636 Y125.341 E0.45866
G1 X83.636 Y96.347 E0.90907
G1 X98.204 Y96.347 E0.45678
G1 X97.887 Y96.724 F9000.000
G1 F1200.000
G1 X97.887 Y124.963 E0.88543
G1 X84.013 Y124.963 E0.43501
G1 X84.013 Y96.724 E0.88543
G1 X97.827 Y96.724 E0.43313
G1 X97.510 Y97.101 F9000.000
G1 F1200.000
G1 X97.510 Y124.586 E0.86178
G1 X84.390 Y124.586 E0.41137
G1 X84.390 Y97.101 E0.86178
G1 X97.450 Y97.101 E0.40949
G1 X97.882 Y96.955 F9000.000
G1 E-3.50000 F3600.00000
G1 F7200.000
G1 X97.457 Y100.101 E-1.42500
G1 E-0.07500 F3600.00000
G1 X79.573 Y87.152 F9000.000
G1 E5.00000 F2400.00000
G1 F1200.000
G1 X140.314 Y87.152 E1.90448
G1 X140.270 Y87.482 E0.01044
G1 X140.329 Y87.928 E0.01411
G1 X140.501 Y88.344 E0.01411
G1 X140.775 Y88.701 E0.01411
G1 X141.132 Y88.975 E0.01411
G1 X141.548 Y89.147 E0.01411
G1 X141.995 Y89.206 E0.01411
G1 X142.373 Y89.156 E0.01198
G1 X142.373 Y130.979 E1.31132
G1 X142.094 Y130.948 E0.00881
G1 X141.675 Y131.003 E0.01325
G1 X141.259 Y131.176 E0.01411
G1 X140.902 Y131.450 E0.01411
G1 X140.628 Y131.807 E0.01411
G1 X140.456 Y132.223 E0.01411
G1 X140.397 Y132.669 E0.01411
G1 X140.420 Y132.848 E0.00568
G1 X79.551 Y132.848 E1.90852
G1 X79.590 Y132.554 E0.00929
G1 X79.519 Y132.093 E0.01464
G1 X79.357 Y131.702 E0.01325
G1 X79.083 Y131.345 E0.01411
G1 X78.726 Y131.071 E0.01411
G1 X78.301 Y130.895 E0.01444
G1 X77.837 Y130.844 E0.01464
G1 X77.627 Y130.872 E0.00665
G1 X77.627 Y89.133 E1.30869
G1 X77.887 Y89.167 E0.00824
G1 X78.333 Y89.108 E0.01411
G1 X78.749 Y88.936 E0.01411
G1 X79.106 Y88.662 E0.01411
G1 X79.381 Y88.305 E0.01411
G1 X79.553 Y87.889 E0.01411
G1 X79.612 Y87.443 E0.01411
G1 X79.581 Y87.211 E0.00732
G1 X79.053 Y86.775 F9000.000
G1 F1200.000
G1 X140.863 Y86.775 E1.93803
G1 X140.822 Y86.831 E0.00221
G1 X140.696 Y87.134 E0.01027
G1 X140.651 Y87.482 E0.01100
G1 X140.696 Y87.830 E0.01100
G1 X140.831 Y88.154 E0.01100
G1 X141.044 Y88.432 E0.01100
G1 X141.323 Y88.646 E0.01100
G1 X141.647 Y88.780 E0.01100
G1 X141.995 Y88.826 E0.01100
G1 X142.342 Y88.780 E0.01100
G1 X142.667 Y88.646 E0.01100
G1 X142.750 Y88.581 E0.00331
G1 X142.750 Y131.487 E1.34528
G1 X142.463 Y131.368 E0.00975
G1 X142.098 Y131.328 E0.01152
G1 X141.773 Y131.371 E0.01027
G1 X141.449 Y131.505 E0.01100
G1 X141.171 Y131.718 E0.01100
G1 X140.957 Y131.997 E0.01100
G1 X140.823 Y132.321 E0.01100
G1 X140.777 Y132.669 E0.01100
G1 X140.823 Y133.017 E0.01100
G1 X140.909 Y133.225 E0.00708
G1 X79.033 Y133.225 E1.94010
G1 X79.162 Y132.912 E0.01062
G1 X79.209 Y132.558 E0.01120
G1 X79.153 Y132.195 E0.01152
G1 X79.028 Y131.893 E0.01027
G1 X78.814 Y131.614 E0.01100
G1 X78.536 Y131.401 E0.01100
G1 X78.206 Y131.264 E0.01120
G1 X77.841 Y131.224 E0.01152
G1 X77.516 Y131.266 E0.01027
G1 X77.250 Y131.377 E0.00905
G1 X77.250 Y88.621 E1.34059
G1 X77.539 Y88.741 E0.00983
G1 X77.887 Y88.787 E0.01100
G1 X78.235 Y88.741 E0.01100
G1 X78.559 Y88.607 E0.01100
G1 X78.838 Y88.393 E0.01100
G1 X79.051 Y88.115 E0.01100
G1 X79.185 Y87.791 E0.01100
G1 X79.231 Y87.443 E0.01100
G1 X79.185 Y87.095 E0.01100
G1 X79.076 Y86.830 E0.00899
G1 E-3.50000 F3600.00000
G1 F7200.000
G1 X82.076 Y86.827 E-1.42500
G1 E-0.07500 F3600.00000
G1 X141.031 Y87.482 F9000.000
G1 E5.00000 F2400.00000
G1 F1200.000
G1 X141.064 Y87.232 E0.00789
G1 X141.153 Y87.018 E0.00728
G1 X141.311 Y86.802 E0.00841
G1 X141.513 Y86.647 E0.00796
G1 X141.745 Y86.551 E0.00789
G1 X141.975 Y86.521 E0.00728
G1 X142.242 Y86.550 E0.00841
G1 X142.476 Y86.647 E0.00796
G1 X142.676 Y86.800 E0.00789
G1 X142.829 Y87.000 E0.00789
G1 X142.925 Y87.232 E0.00789
G1 X142.958 Y87.482 E0.00789
G1 X142.925 Y87.731 E0.00789
G1 X142.829 Y87.964 E0.00789
G1 X142.676 Y88.163 E0.00789
G1 X142.476 Y88.316 E0.00789
G1 X142.244 Y88.413 E0.00789
G1 X141.995 Y88.445 E0.00789
G1 X141.745 Y88.413 E0.00789
G1 X141.513 Y88.316 E0.00789
G1 X141.313 Y88.163 E0.00789
G1 X141.160 Y87.964 E0.00789
G1 X141.064 Y87.731 E0.00789
G1 X141.039 Y87.541 E0.00601
G1 X140.813 Y87.356 F9000.000
G1 E-3.50000 F3600.00000
G1 F7200.000
G1 X141.064 Y87.232 E-0.14721
G1 X141.153 Y87.018 E-0.11028
G1 X141.311 Y86.802 E-0.12740
G1 X141.513 Y86.647 E-0.12055
G1 X141.745 Y86.551 E-0.11949
G1 X141.975 Y86.521 E-0.11028
G1 X142.242 Y86.550 E-0.12740
G1 X142.476 Y86.647 E-0.12055
G1 X142.676 Y86.800 E-0.11949
G1 X142.829 Y87.000 E-0.11950
G1 X142.925 Y87.232 E-0.11949
G1 X142.948 Y87.406 E-0.08337
G1 E-0.07500 F3600.00000
G1 X78.851 Y87.443 F9000.000
G1 E5.00000 F2400.00000
G1 F1200.000
G1 X78.818 Y87.692 E0.00789
G1 X78.722 Y87.924 E0.00789
G1 X78.569 Y88.124 E0.00789
G1 X78.369 Y88.277 E0.00789
G1 X78.137 Y88.373 E0.00789
G1 X77.887 Y88.406 E0.00789
G1 X77.638 Y88.373 E0.00789
G1 X77.405 Y88.277 E0.00789
G1 X77.206 Y88.124 E0.00789
G1 X77.053 Y87.924 E0.00789
G1 X76.964 Y87.710 E0.00728
G1 X76.923 Y87.445 E0.00841
G1 X76.956 Y87.193 E0.00796
G1 X77.053 Y86.961 E0.00789
G1 X77.206 Y86.761 E0.00789
G1 X77.405 Y86.608 E0.00789
G1 X77.638 Y86.512 E0.00789
G1 X77.868 Y86.482 E0.00728
G1 X78.135 Y86.511 E0.00841
G1 X78.369 Y86.608 E0.00796
G1 X78.569 Y86.761 E0.00789
G1 X78.722 Y86.961 E0.00789
G1 X78.818 Y87.193 E0.00789
G1 X78.843 Y87.383 E0.00601
G1 X79.069 Y87.568 F9000.000
G1 E-3.50000 F3600.00000
G1 F7200.000
G1 X78.818 Y87.692 E-0.14720
G1 X78.722 Y87.924 E-0.11949
G1 X78.569 Y88.124 E-0.11949
G1 X78.369 Y88.277 E-0.11949
G1 X78.137 Y88.373 E-0.11949
G1 X77.887 Y88.406 E-0.11949
G1 X77.638 Y88.373 E-0.11949
G1 X77.405 Y88.277 E-0.11949
G1 X77.206 Y88.124 E-0.11949
G1 X77.053 Y87.924 E-0.11949
G1 X76.964 Y87.710 E-0.11028
G1 X76.934 Y87.518 E-0.09208
G1 E-0.07500 F3600.00000
G1 X78.111 Y131.633 F9000.000
G1 E5.00000 F2400.00000
G1 F1200.000
G1 X78.346 Y131.730 E0.00796
G1 X78.546 Y131.883 E0.00789
G1 X78.699 Y132.083 E0.00789
G1 X78.788 Y132.297 E0.00728
G1 X78.828 Y132.562 E0.00841
G1 X78.795 Y132.814 E0.00796
G1 X78.699 Y133.046 E0.00789
G1 X78.546 Y133.246 E0.00789
G1 X78.346 Y133.399 E0.00789
G1 X78.131 Y133.488 E0.00728
G1 X77.866 Y133.529 E0.00841
G1 X77.615 Y133.495 E0.00796
G1 X77.382 Y133.399 E0.00789
G1 X77.183 Y133.246 E0.00789
G1 X77.030 Y133.046 E0.00789
G1 X76.933 Y132.814 E0.00789
G1 X76.900 Y132.565 E0.00789
G1 X76.933 Y132.315 E0.00789
G1 X77.030 Y132.083 E0.00789
G1 X77.183 Y131.883 E0.00789
G1 X77.382 Y131.730 E0.00789
G1 X77.615 Y131.634 E0.00789
G1 X77.845 Y131.604 E0.00728
G1 X78.052 Y131.626 E0.00653
G1 X78.291 Y131.453 F9000.000
G1 E-3.50000 F3600.00000
G1 F7200.000
G1 X78.346 Y131.730 E-0.14814
G1 X78.546 Y131.883 E-0.11949
G1 X78.699 Y132.083 E-0.11949
G1 X78.788 Y132.297 E-0.11028
G1 X78.828 Y132.562 E-0.12740
G1 X78.795 Y132.814 E-0.12055
G1 X78.699 Y133.046 E-0.11949
G1 X78.546 Y133.246 E-0.11949
G1 X78.346 Y133.399 E-0.11949
G1 X78.131 Y133.488 E-0.11028
G1 X77.866 Y133.529 E-0.12740
G1 X77.692 Y133.506 E-0.08350
G1 E-0.07500 F3600.00000
G1 X76.872 Y133.602 F9000.000
G1 E5.00000 F2400.00000
G1 F1200.000
G1 X76.872 Y86.397 E1.48008
G1 X143.128 Y86.397 E2.07738
G1 X143.128 Y133.602 E1.48008
G1 X142.349 Y133.602 E0.02442
G1 X142.603 Y133.503 E0.00855
G1 X142.803 Y133.350 E0.00789
G1 X142.956 Y133.151 E0.00789
G1 X143.052 Y132.918 E0.00789
G1 X143.085 Y132.669 E0.00789
G1 X143.052 Y132.419 E0.00789
G1 X142.956 Y132.187 E0.00789
G1 X142.803 Y131.987 E0.00789
G1 X142.603 Y131.834 E0.00789
G1 X142.368 Y131.737 E0.00796
G1 X142.102 Y131.708 E0.00841
G1 X141.872 Y131.738 E0.00728
G1 X141.639 Y131.834 E0.00789
G1 X141.440 Y131.987 E0.00789
G1 X141.287 Y132.187 E0.00789
G1 X141.190 Y132.419 E0.00789
G1 X141.158 Y132.669 E0.00789
G1 X141.190 Y132.918 E0.00789
G1 X141.287 Y133.151 E0.00789
G1 X141.440 Y133.350 E0.00789
G1 X141.639 Y133.503 E0.00789
G1 X141.894 Y133.602 E0.00855
G1 X76.932 Y133.602 E2.03681
G1 X77.072 Y133.256 F9000.000
G1 X78.706 Y133.414
G1 F1200.000
G1 X78.779 Y133.287 E0.00087
G1 X80.444 Y132.735 F9000.000
G1 F1200.000
G1 X79.806 Y132.098 E0.02841
G1 X79.794 Y132.016 E0.00259
G1 X79.604 Y131.560 E0.01557
G1 X79.285 Y131.144 E0.01653
G1 X78.869 Y130.824 E0.01653
G1 X78.372 Y130.618 E0.01695
G1 X78.321 Y130.613 E0.00161
G1 X77.909 Y130.201 E0.01835
G1 X77.909 Y129.665 E0.01689
G1 X80.810 Y132.566 E0.12925
G1 X81.346 Y132.566 E0.01689
G1 X77.909 Y129.129 E0.15313
G1 X77.909 Y128.593 E0.01689
G1 X81.882 Y132.566 E0.17701
G1 X82.418 Y132.566 E0.01689
G1 X77.909 Y128.057 E0.20089
G1 X77.909 Y127.522 E0.01689
G1 X82.953 Y132.566 E0.22477
G1 X83.489 Y132.566 E0.01689
G1 X77.909 Y126.986 E0.24865
G1 X77.909 Y126.450 E0.01689
G1 X84.025 Y132.566 E0.27253
G1 X84.561 Y132.566 E0.01689
G1 X77.909 Y125.914 E0.29641
G1 X77.909 Y125.378 E0.01689
G1 X85.097 Y132.566 E0.32029
G1 X85.633 Y132.566 E0.01689
G1 X77.909 Y124.842 E0.34417
G1 X77.909 Y124.306 E0.01689
G1 X86.169 Y132.566 E0.36806
G1 X86.705 Y132.566 E0.01689
G1 X77.909 Y123.770 E0.39194
G1 X77.909 Y123.234 E0.01689
G1 X87.241 Y132.566 E0.41582
G1 X87.777 Y132.566 E0.01689
G1 X77.909 Y122.698 E0.43970
G1 X77.909 Y122.162 E0.01689
G1 X88.313 Y132.566 E0.46358
G1 X88.849 Y132.566 E0.01689
G1 X77.909 Y121.626 E0.48746
G1 X77.909 Y121.091 E0.01689
G1 X89.384 Y132.566 E0.51134
G1 X89.920 Y132.566 E0.01689
G1 X77.909 Y120.555 E0.53522
G1 X77.909 Y120.019 E0.01689
G1 X90.456 Y132.566 E0.55910
G1 X90.992 Y132.566 E0.01689
G1 X84.050 Y125.623 E0.30935
G1 X84.586 Y125.623 E0.01689
G1 X91.528 Y132.566 E0.30935
G1 X92.064 Y132.566 E0.01689
G1 X85.122 Y125.623 E0.30935
G1 X85.658 Y125.623 E0.01689
G1 X92.600 Y132.566 E0.30935
G1 X93.136 Y132.566 E0.01689
G1 X86.194 Y125.623 E0.30935
G1 X86.730 Y125.623 E0.01689
G1 X93.672 Y132.566 E0.30935
G1 X94.208 Y132.566 E0.01689
G1 X87.265 Y125.623 E0.30935
G1 X87.801 Y125.623 E0.01689
G1 X94.744 Y132.566 E0.30935
G1 X95.279 Y132.566 E0.01689
G1 X88.337 Y125.623 E0.30935
G1 X88.873 Y125.623 E0.01689
G1 X95.815 Y132.566 E0.30935
G1 X96.351 Y132.566 E0.01689
G1 X89.409 Y125.623 E0.30935
G1 X89.945 Y125.623 E0.01689
G1 X96.887 Y132.566 E0.30935
G1 X97.423 Y132.566 E0.01689
G1 X90.481 Y125.623 E0.30935
G1 X91.017 Y125.623 E0.01689
G1 X97.959 Y132.566 E0.30935
G1 X98.495 Y132.566 E0.01689
G1 X91.553 Y125.623 E0.30935
G1 X92.089 Y125.623 E0.01689
G1 X99.031 Y132.566 E0.30935
G1 X99.567 Y132.566 E0.01689
G1 X92.625 Y125.623 E0.30935
G1 X93.161 Y125.623 E0.01689
G1 X100.103 Y132.566 E0.30935
G1 X100.639 Y132.566 E0.01689
G1 X93.696 Y125.623 E0.30935
G1 X94.232 Y125.623 E0.01689
G1 X101.175 Y132.566 E0.30935
G1 X101.710 Y132.566 E0.01689
G1 X94.768 Y125.623 E0.30935
G1 X95.304 Y125.623 E0.01689
G1 X102.246 Y132.566 E0.30935
G1 X102.782 Y132.566 E0.01689
G1 X95.840 Y125.623 E0.30935
G1 X96.376 Y125.623 E0.01689
G1 X103.318 Y132.566 E0.30935
G1 X103.854 Y132.566 E0.01689
G1 X96.912 Y125.623 E0.30935
G1 X97.448 Y125.623 E0.01689
G1 X104.390 Y132.566 E0.30935
G1 X104.926 Y132.566 E0.01689
G1 X97.984 Y125.623 E0.30935
G1 X98.520 Y125.623 E0.01689
G1 X105.462 Y132.566 E0.30935
G1 X105.998 Y132.566 E0.01689
G1 X98.547 Y125.115 E0.33202
G1 X98.547 Y124.579 E0.01689
G1 X106.703 Y132.735 E0.36346
G1 E-3.50000 F3600.00000
G1 F7200.000
G1 X104.582 Y130.614 E-1.42500
G1 E-0.07500 F3600.00000
G1 X114.742 Y132.735 F9000.000
G1 E5.00000 F2400.00000
G1 F1200.000
G1 X109.139 Y127.133 E0.24967
G1 X108.603 Y127.133 E0.01689
G1 X114.036 Y132.566 E0.24210
G1 X113.501 Y132.566 E0.01689
G1 X108.068 Y127.133 E0.24210
G1 X107.532 Y127.133 E0.01689
G1 X112.965 Y132.566 E0.24210
G1 X112.429 Y132.566 E0.01689
G1 X106.996 Y127.133 E0.24210
G1 X106.460 Y127.133 E0.01689
G1 X111.893 Y132.566 E0.24210
G1 X111.357 Y132.566 E0.01689
G1 X105.924 Y127.133 E0.24210
G1 X105.388 Y127.133 E0.01689
G1 X110.821 Y132.566 E0.24210
G1 X110.285 Y132.566 E0.01689
G1 X104.852 Y127.133 E0.24210
G1 X104.316 Y127.133 E0.01689
G1 X109.749 Y132.566 E0.24210
G1 X109.213 Y132.566 E0.01689
G1 X103.780 Y127.133 E0.24210
G1 X103.244 Y127.133 E0.01689
G1 X108.677 Y132.566 E0.24210
G1 X108.141 Y132.566 E0.01689
G1 X102.708 Y127.133 E0.24210
G1 X102.172 Y127.133 E0.01689
G1 X107.606 Y132.566 E0.24210
G1 X107.070 Y132.566 E0.01689
G1 X101.467 Y126.963 E0.24967
